src/pos-icons/bread-slice.svg

<svg height="24" viewBox="0 0 24 24" width="24" xmlns="http://www.w3.org/2000/svg"><path d="m12 2c5.5 0 10 3.36 10 7.5 0 1.69-.74 3.25-2 4.5v8h-16v-8c-1.26-1.25-2-2.81-2-4.5 0-4.14 4.5-7.5 10-7.5m-4 16h4v-4h-4z"/></svg>

<?xml version="1.0" encoding="UTF-8"?><!DOCTYPE svg PUBLIC "-//W3C//DTD SVG 1.1//EN" "http://www.w3.org/Graphics/SVG/1.1/DTD/svg11.dtd"><svg xmlns="http://www.w3.org/2000/svg" xmlns:xlink="http://www.w3.org/1999/xlink" version="1.1" id="mdi-bread-slice" width="24" height="24" viewBox="0 0 24 24"><path d="M12,2C17.5,2 22,5.36 22,9.5C22,11.19 21.26,12.75 20,14V22H4V14C2.74,12.75 2,11.19 2,9.5C2,5.36 6.5,2 12,2M8,18H12V14H8V18Z" /></svg>
